static/img/kroki/a3615cc96566c8955b4173566180db1a.svg

<?xml version="1.0" encoding="us-ascii" standalone="no"?><svg xmlns="http://www.w3.org/2000/svg" xmlns:xlink="http://www.w3.org/1999/xlink" contentStyleType="text/css" height="451px" preserveAspectRatio="none" style="width:719px;height:451px;" version="1.1" viewBox="0 0 719 451" width="719px" zoomAndPan="magnify"><defs/><g><!--class digitalocean_droplet--><g id="elem_digitalocean_droplet"><rect codeLine="22" fill="#3D176E" height="39.7891" id="digitalocean_droplet" rx="2.5" ry="2.5" style="stroke:#000D19;stroke-width:0.5;" width="211" x="350" y="406.16"/><ellipse cx="365" cy="426.0545" fill="#ADD1B2" rx="11" ry="11" style="stroke:#181818;stroke-width:1.0;"/><path d="M367.9688,431.6952 Q367.3906,431.992 366.75,432.1327 Q366.1094,432.2889 365.4063,432.2889 Q362.9063,432.2889 361.5781,430.6483 Q360.2656,428.992 360.2656,425.867 Q360.2656,422.742 361.5781,421.0858 Q362.9063,419.4295 365.4063,419.4295 Q366.1094,419.4295 366.75,419.5858 Q367.4063,419.742 367.9688,420.0389 L367.9688,422.7577 Q367.3438,422.1795 366.75,421.9139 Q366.1563,421.6327 365.5313,421.6327 Q364.1875,421.6327 363.5,422.7108 Q362.8125,423.7733 362.8125,425.867 Q362.8125,427.9608 363.5,429.0389 Q364.1875,430.1014 365.5313,430.1014 Q366.1563,430.1014 366.75,429.8358 Q367.3438,429.5545 367.9688,428.9764 L367.9688,431.6952 Z " fill="#000000"/><text fill="#D9B8FF" font-family="Helvetica" font-size="17" lengthAdjust="spacing" textLength="169" x="384" y="431.9398">digitalocean_droplet</text></g><!--class digitalocean_load_balancer--><g id="elem_digitalocean_load_balancer"><rect codeLine="24" fill="#3D176E" height="39.7891" id="digitalocean_load_balancer" rx="2.5" ry="2.5" style="stroke:#000D19;stroke-width:0.5;" width="267" x="136" y="306.37"/><ellipse cx="151" cy="326.2645" fill="#ADD1B2" rx="11" ry="11" style="stroke:#181818;stroke-width:1.0;"/><path d="M153.9688,331.9052 Q153.3906,332.202 152.75,332.3427 Q152.1094,332.4989 151.4063,332.4989 Q148.9063,332.4989 147.5781,330.8583 Q146.2656,329.202 146.2656,326.077 Q146.2656,322.952 147.5781,321.2958 Q148.9063,319.6395 151.4063,319.6395 Q152.1094,319.6395 152.75,319.7958 Q153.4063,319.952 153.9688,320.2489 L153.9688,322.9677 Q153.3438,322.3895 152.75,322.1239 Q152.1563,321.8427 151.5313,321.8427 Q150.1875,321.8427 149.5,322.9208 Q148.8125,323.9833 148.8125,326.077 Q148.8125,328.1708 149.5,329.2489 Q150.1875,330.3114 151.5313,330.3114 Q152.1563,330.3114 152.75,330.0458 Q153.3438,329.7645 153.9688,329.1864 L153.9688,331.9052 Z " fill="#000000"/><text fill="#D9B8FF" font-family="Helvetica" font-size="17" lengthAdjust="spacing" textLength="225" x="170" y="332.1498">digitalocean_load_balancer</text></g><!--class digitalocean_project--><g id="elem_digitalocean_project"><rect codeLine="26" fill="#3D176E" height="39.7891" id="digitalocean_project" rx="2.5" ry="2.5" style="stroke:#000D19;stroke-width:0.5;" width="209" x="7" y="206.58"/><ellipse cx="22" cy="226.4745" fill="#ADD1B2" rx="11" ry="11" style="stroke:#181818;stroke-width:1.0;"/><path d="M24.9688,232.1152 Q24.3906,232.412 23.75,232.5527 Q23.1094,232.7089 22.4063,232.7089 Q19.9063,232.7089 18.5781,231.0683 Q17.2656,229.412 17.2656,226.287 Q17.2656,223.162 18.5781,221.5058 Q19.9063,219.8495 22.4063,219.8495 Q23.1094,219.8495 23.75,220.0058 Q24.4063,220.162 24.9688,220.4589 L24.9688,223.1777 Q24.3438,222.5995 23.75,222.3339 Q23.1563,222.0527 22.5313,222.0527 Q21.1875,222.0527 20.5,223.1308 Q19.8125,224.1933 19.8125,226.287 Q19.8125,228.3808 20.5,229.4589 Q21.1875,230.5214 22.5313,230.5214 Q23.1563,230.5214 23.75,230.2558 Q24.3438,229.9745 24.9688,229.3964 L24.9688,232.1152 Z " fill="#000000"/><text fill="#D9B8FF" font-family="Helvetica" font-size="17" lengthAdjust="spacing" textLength="167" x="41" y="232.3598">digitalocean_project</text></g><!--class digitalocean_region--><g id="elem_digitalocean_region"><rect codeLine="28" fill="#3D176E" height="39.7891" id="digitalocean_region" rx="2.5" ry="2.5" style="stroke:#000D19;stroke-width:0.5;" width="205" x="322" y="106.79"/><ellipse cx="337" cy="126.6845" fill="#ADD1B2" rx="11" ry="11" style="stroke:#181818;stroke-width:1.0;"/><path d="M339.9688,132.3252 Q339.3906,132.622 338.75,132.7627 Q338.1094,132.9189 337.4063,132.9189 Q334.9063,132.9189 333.5781,131.2783 Q332.2656,129.622 332.2656,126.497 Q332.2656,123.372 333.5781,121.7158 Q334.9063,120.0595 337.4063,120.0595 Q338.1094,120.0595 338.75,120.2158 Q339.4063,120.372 339.9688,120.6689 L339.9688,123.3877 Q339.3438,122.8095 338.75,122.5439 Q338.1563,122.2627 337.5313,122.2627 Q336.1875,122.2627 335.5,123.3408 Q334.8125,124.4033 334.8125,126.497 Q334.8125,128.5908 335.5,129.6689 Q336.1875,130.7314 337.5313,130.7314 Q338.1563,130.7314 338.75,130.4658 Q339.3438,130.1845 339.9688,129.6064 L339.9688,132.3252 Z " fill="#000000"/><text fill="#D9B8FF" font-family="Helvetica" font-size="17" lengthAdjust="spacing" textLength="163" x="356" y="132.5698">digitalocean_region</text></g><!--class digitalocean_team--><g id="elem_digitalocean_team"><rect codeLine="30" fill="#3D176E" height="39.7891" id="digitalocean_team" rx="2.5" ry="2.5" style="stroke:#000D19;stroke-width:0.5;" width="196" x="326.5" y="7"/><ellipse cx="341.5" cy="26.8945" fill="#ADD1B2" rx="11" ry="11" style="stroke:#181818;stroke-width:1.0;"/><path d="M344.4688,32.5352 Q343.8906,32.832 343.25,32.9727 Q342.6094,33.1289 341.9063,33.1289 Q339.4063,33.1289 338.0781,31.4883 Q336.7656,29.832 336.7656,26.707 Q336.7656,23.582 338.0781,21.9258 Q339.4063,20.2695 341.9063,20.2695 Q342.6094,20.2695 343.25,20.4258 Q343.9063,20.582 344.4688,20.8789 L344.4688,23.5977 Q343.8438,23.0195 343.25,22.7539 Q342.6563,22.4727 342.0313,22.4727 Q340.6875,22.4727 340,23.5508 Q339.3125,24.6133 339.3125,26.707 Q339.3125,28.8008 340,29.8789 Q340.6875,30.9414 342.0313,30.9414 Q342.6563,30.9414 343.25,30.6758 Q343.8438,30.3945 344.4688,29.8164 L344.4688,32.5352 Z " fill="#000000"/><text fill="#D9B8FF" font-family="Helvetica" font-size="17" lengthAdjust="spacing" textLength="154" x="360.5" y="32.7798">digitalocean_team</text></g><!--class digitalocean_vpc--><g id="elem_digitalocean_vpc"><rect codeLine="32" fill="#3D176E" height="39.7891" id="digitalocean_vpc" rx="2.5" ry="2.5" style="stroke:#000D19;stroke-width:0.5;" width="180" x="477.5" y="206.58"/><ellipse cx="492.5" cy="226.4745" fill="#ADD1B2" rx="11" ry="11" style="stroke:#181818;stroke-width:1.0;"/><path d="M495.4688,232.1152 Q494.8906,232.412 494.25,232.5527 Q493.6094,232.7089 492.9063,232.7089 Q490.4063,232.7089 489.0781,231.0683 Q487.7656,229.412 487.7656,226.287 Q487.7656,223.162 489.0781,221.5058 Q490.4063,219.8495 492.9063,219.8495 Q493.6094,219.8495 494.25,220.0058 Q494.9063,220.162 495.4688,220.4589 L495.4688,223.1777 Q494.8438,222.5995 494.25,222.3339 Q493.6563,222.0527 493.0313,222.0527 Q491.6875,222.0527 491,223.1308 Q490.3125,224.1933 490.3125,226.287 Q490.3125,228.3808 491,229.4589 Q491.6875,230.5214 493.0313,230.5214 Q493.6563,230.5214 494.25,230.2558 Q494.8438,229.9745 495.4688,229.3964 L495.4688,232.1152 Z " fill="#000000"/><text fill="#D9B8FF" font-family="Helvetica" font-size="17" lengthAdjust="spacing" textLength="138" x="511.5" y="232.3598">digitalocean_vpc</text></g><!--link digitalocean_load_balancer to digitalocean_droplet--><g id="link_digitalocean_load_balancer_digitalocean_droplet"><path codeLine="34" d="M306.25,346.59 C337.2,362.86 381.47,386.13 413.75,403.11 " fill="none" id="digitalocean_load_balancer-to-digitalocean_droplet" style="stroke:#1A83AF;stroke-width:2.0;"/><polygon fill="#1A83AF" points="417.83,405.78,411.7256,398.051,413.4045,403.453,408.0025,405.1319,417.83,405.78" style="stroke:#1A83AF;stroke-width:2.0;"/></g><!--link digitalocean_project to digitalocean_droplet--><g id="link_digitalocean_project_digitalocean_droplet"><path codeLine="35" d="M106.27,246.86 C100.57,272.7 95.1,318.37 118.5,346.16 C147.4,380.48 257.24,401.6 343.76,413.25 " fill="none" id="digitalocean_project-to-digitalocean_droplet" style="stroke:#1A83AF;stroke-width:2.0;"/><polygon fill="#1A83AF" points="348.69,414.04,340.2937,408.892,343.7334,413.3829,339.2424,416.8226,348.69,414.04" style="stroke:#1A83AF;stroke-width:2.0;"/></g><!--link digitalocean_project to digitalocean_load_balancer--><g id="link_digitalocean_project_digitalocean_load_balancer"><path codeLine="36" d="M142.72,246.8 C168.79,262.94 206,285.96 233.36,302.9 " fill="none" id="digitalocean_project-to-digitalocean_load_balancer" style="stroke:#1A83AF;stroke-width:2.0;"/><polygon fill="#1A83AF" points="237.35,305.99,231.8059,297.8498,233.0996,303.3567,227.5927,304.6505,237.35,305.99" style="stroke:#1A83AF;stroke-width:2.0;"/></g><!--link digitalocean_region to digitalocean_droplet--><g id="link_digitalocean_region_digitalocean_droplet"><path codeLine="37" d="M426.49,146.74 C431.89,198.55 446.84,341.96 452.9,400.09 " fill="none" id="digitalocean_region-to-digitalocean_droplet" style="stroke:#1A83AF;stroke-width:2.0;"/><polygon fill="#1A83AF" points="453.49,404.78,456.5427,395.4162,452.9755,399.8065,448.5851,396.2394,453.49,404.78" style="stroke:#1A83AF;stroke-width:2.0;"/></g><!--link digitalocean_region to digitalocean_load_balancer--><g id="link_digitalocean_region_digitalocean_load_balancer"><path codeLine="38" d="M409.36,146.99 C380.88,183.29 319.44,261.61 288.34,301.25 " fill="none" id="digitalocean_region-to-digitalocean_load_balancer" style="stroke:#1A83AF;stroke-width:2.0;"/><polygon fill="#1A83AF" points="284.71,304.88,293.4149,300.273,287.7985,300.9479,287.1236,295.3315,284.71,304.88" style="stroke:#1A83AF;stroke-width:2.0;"/></g><!--link digitalocean_region to digitalocean_vpc--><g id="link_digitalocean_region_digitalocean_vpc"><path codeLine="39" d="M452.75,147.01 C476.26,163.08 509.74,185.98 534.48,202.9 " fill="none" id="digitalocean_region-to-digitalocean_vpc" style="stroke:#1A83AF;stroke-width:2.0;"/><polygon fill="#1A83AF" points="538.31,206.2,533.1462,197.8134,534.1852,203.374,528.6246,204.4131,538.31,206.2" style="stroke:#1A83AF;stroke-width:2.0;"/></g><!--link digitalocean_team to digitalocean_droplet--><g id="link_digitalocean_team_digitalocean_droplet"><path codeLine="40" d="M481.1,47.21 C544.17,72.39 641.7,123.32 675.5,206.58 C712.28,297.18 586.11,369.2 509.71,403.4 " fill="none" id="digitalocean_team-to-digitalocean_droplet" style="stroke:#1A83AF;stroke-width:2.0;"/><polygon fill="#1A83AF" points="505.3,405.79,515.1489,405.7957,509.8702,403.762,511.904,398.4833,505.3,405.79" style="stroke:#1A83AF;stroke-width:2.0;"/></g><!--link digitalocean_team to digitalocean_load_balancer--><g id="link_digitalocean_team_digitalocean_load_balancer"><path codeLine="41" d="M377.5,47.25 C351.83,60.27 321.83,80 304.5,106.79 C265.25,167.48 264.79,256.98 267.3,300.15 " fill="none" id="digitalocean_team-to-digitalocean_load_balancer" style="stroke:#1A83AF;stroke-width:2.0;"/><polygon fill="#1A83AF" points="267.67,304.93,271.0959,295.6962,267.3554,299.9399,263.1117,296.1995,267.67,304.93" style="stroke:#1A83AF;stroke-width:2.0;"/></g><!--link digitalocean_team to digitalocean_project--><g id="link_digitalocean_team_digitalocean_project"><path codeLine="42" d="M367.91,47.18 C330.98,61.03 282.56,81.66 243.5,106.79 C200.63,134.38 158.04,175.87 133.28,201.78 " fill="none" id="digitalocean_team-to-digitalocean_project" style="stroke:#1A83AF;stroke-width:2.0;"/><polygon fill="#1A83AF" points="130.16,205.11,139.2564,201.3344,133.6015,201.4829,133.453,195.828,130.16,205.11" style="stroke:#1A83AF;stroke-width:2.0;"/></g><!--link digitalocean_team to digitalocean_region--><g id="link_digitalocean_team_digitalocean_region"><path codeLine="43" d="M424.5,47.22 C424.5,62.49 424.5,83.92 424.5,100.53 " fill="none" id="digitalocean_team-to-digitalocean_region" style="stroke:#1A83AF;stroke-width:2.0;"/><polygon fill="#1A83AF" points="424.5,105.41,428.5,96.41,424.5,100.41,420.5,96.41,424.5,105.41" style="stroke:#1A83AF;stroke-width:2.0;"/></g><!--link digitalocean_team to digitalocean_vpc--><g id="link_digitalocean_team_digitalocean_vpc"><path codeLine="44" d="M470.58,47.16 C496.27,60.25 526.6,80.07 544.5,106.79 C563.32,134.88 567.56,174.61 568.12,200.21 " fill="none" id="digitalocean_team-to-digitalocean_vpc" style="stroke:#1A83AF;stroke-width:2.0;"/><polygon fill="#1A83AF" points="568.19,205.09,572.0869,196.0449,568.1329,200.0903,564.0874,196.1363,568.19,205.09" style="stroke:#1A83AF;stroke-width:2.0;"/></g><!--link digitalocean_vpc to digitalocean_droplet--><g id="link_digitalocean_vpc_digitalocean_droplet"><path codeLine="45" d="M556.56,246.78 C536.07,282.93 491.94,360.76 469.39,400.55 " fill="none" id="digitalocean_vpc-to-digitalocean_droplet" style="stroke:#1A83AF;stroke-width:2.0;"/><polygon fill="#1A83AF" points="466.49,404.67,474.4096,398.8151,468.9569,400.3209,467.4511,394.8681,466.49,404.67" style="stroke:#1A83AF;stroke-width:2.0;"/></g><!--link digitalocean_vpc to digitalocean_load_balancer--><g id="link_digitalocean_vpc_digitalocean_load_balancer"><path codeLine="46" d="M508.62,246.8 C458.3,263.31 386,287.04 334.1,304.07 " fill="none" id="digitalocean_vpc-to-digitalocean_load_balancer" style="stroke:#1A83AF;stroke-width:2.0;"/><polygon fill="#1A83AF" points="329.51,305.9,339.3078,306.9018,334.2619,304.3446,336.8191,299.2987,329.51,305.9" style="stroke:#1A83AF;stroke-width:2.0;"/></g><!--SRC=[hP9FJy904CNl_HIRS2QX4WKk9fM4w8KOyMOCcUvEoyfsjvbT86ZyxhQWflHl6htk-xsPDw_TI84CazGTMO99Y6GzkvKw1OA41KJcC3VA41j44KJZILbS6EqwWIKaoEvHxT593cNYUIFvLgErxAeWtG7VncHsMfp7Em9jCmcrAr1p1TO6pf4CTmuBOSGid4PHcImF7Oo5Fxd12cP887qZez58-BCoqhcgzUvVOYNVaVd5qfR6OILcPSM9QasP4uMGbKD_zCQCZo24r36xBhmzdJEHHhfuNsr0c4DEHw1iSOrrI6ZSCSLvvIgSJKKqgOKVcc2UDyU4ZAK3PJY2NWiogKB7FhpFEbaP4EiG56YUfMw0KZ9lo1jd4CRIw2RLOPQzGTkd_2IrH1g-3FnWEWuMhyFRsikysgZ_Rhj8vTNTttDbf-il6xDYlUfNw9cmmzEIhyFvtNOlp_daNfPA2VdlrhE3Tij51Ly0]--></g></svg>

<svg xmlns="http://www.w3.org/2000/svg" width="719" height="451" preserveAspectRatio="none" style="width:719px;height:451px"><rect width="211" height="39.789" x="350" y="406.16" fill="#3D176E" rx="2.5" ry="2.5" style="stroke:#000d19;stroke-width:.5"/><circle cx="365" cy="426.055" r="11" fill="#ADD1B2" style="stroke:#181818;stroke-width:1"/><path d="M367.969 431.695q-.578.297-1.219.438-.64.156-1.344.156-2.5 0-3.828-1.64-1.312-1.657-1.312-4.782t1.312-4.781q1.328-1.656 3.828-1.656.703 0 1.344.156.656.156 1.219.453v2.719q-.625-.578-1.219-.844-.594-.281-1.219-.281-1.344 0-2.031 1.078-.688 1.062-.688 3.156 0 2.094.688 3.172.688 1.062 2.031 1.062.625 0 1.219-.265.594-.281 1.219-.86v2.72Z"/><text x="384" y="431.94" fill="#D9B8FF" font-family="Helvetica" font-size="17" textLength="169">digitalocean_droplet</text><rect width="267" height="39.789" x="136" y="306.37" fill="#3D176E" rx="2.5" ry="2.5" style="stroke:#000d19;stroke-width:.5"/><circle cx="151" cy="326.264" r="11" fill="#ADD1B2" style="stroke:#181818;stroke-width:1"/><path d="M153.969 331.905q-.578.297-1.219.438-.64.156-1.344.156-2.5 0-3.828-1.64-1.312-1.657-1.312-4.782t1.312-4.781q1.328-1.656 3.828-1.656.703 0 1.344.156.656.156 1.219.453v2.719q-.625-.579-1.219-.844-.594-.281-1.219-.281-1.344 0-2.031 1.078-.688 1.062-.688 3.156 0 2.094.688 3.172.688 1.062 2.031 1.062.625 0 1.219-.265.594-.281 1.219-.86v2.72Z"/><text x="170" y="332.15" fill="#D9B8FF" font-family="Helvetica" font-size="17" textLength="225">digitalocean_load_balancer</text><rect width="209" height="39.789" x="7" y="206.58" fill="#3D176E" rx="2.5" ry="2.5" style="stroke:#000d19;stroke-width:.5"/><circle cx="22" cy="226.475" r="11" fill="#ADD1B2" style="stroke:#181818;stroke-width:1"/><path d="M24.969 232.115q-.578.297-1.219.438-.64.156-1.344.156-2.5 0-3.828-1.64-1.312-1.657-1.312-4.782t1.312-4.781q1.328-1.656 3.828-1.656.703 0 1.344.156.656.156 1.219.453v2.719q-.625-.578-1.219-.844-.594-.281-1.219-.281-1.343 0-2.031 1.078-.688 1.062-.688 3.156 0 2.094.688 3.172.688 1.062 2.031 1.062.625 0 1.219-.265.594-.281 1.219-.86v2.72Z"/><text x="41" y="232.36" fill="#D9B8FF" font-family="Helvetica" font-size="17" textLength="167">digitalocean_project</text><rect width="205" height="39.789" x="322" y="106.79" fill="#3D176E" rx="2.5" ry="2.5" style="stroke:#000d19;stroke-width:.5"/><circle cx="337" cy="126.684" r="11" fill="#ADD1B2" style="stroke:#181818;stroke-width:1"/><path d="M339.969 132.325q-.578.297-1.219.438-.64.156-1.344.156-2.5 0-3.828-1.64-1.312-1.657-1.312-4.782t1.312-4.781q1.328-1.656 3.828-1.656.703 0 1.344.156.656.156 1.219.453v2.719q-.625-.579-1.219-.844-.594-.281-1.219-.281-1.344 0-2.031 1.078-.688 1.062-.688 3.156 0 2.094.688 3.172.688 1.062 2.031 1.062.625 0 1.219-.265.594-.281 1.219-.86v2.72Z"/><text x="356" y="132.57" fill="#D9B8FF" font-family="Helvetica" font-size="17" textLength="163">digitalocean_region</text><rect width="196" height="39.789" x="326.5" y="7" fill="#3D176E" rx="2.5" ry="2.5" style="stroke:#000d19;stroke-width:.5"/><circle cx="341.5" cy="26.895" r="11" fill="#ADD1B2" style="stroke:#181818;stroke-width:1"/><path d="M344.469 32.535q-.578.297-1.219.438-.64.156-1.344.156-2.5 0-3.828-1.64-1.312-1.657-1.312-4.782t1.312-4.781q1.328-1.656 3.828-1.656.703 0 1.344.156.656.156 1.219.453v2.719q-.625-.578-1.219-.844-.594-.281-1.219-.281-1.344 0-2.031 1.078-.688 1.062-.688 3.156 0 2.094.688 3.172.688 1.062 2.031 1.062.625 0 1.219-.265.594-.281 1.219-.86v2.72Z"/><text x="360.5" y="32.78" fill="#D9B8FF" font-family="Helvetica" font-size="17" textLength="154">digitalocean_team</text><rect width="180" height="39.789" x="477.5" y="206.58" fill="#3D176E" rx="2.5" ry="2.5" style="stroke:#000d19;stroke-width:.5"/><circle cx="492.5" cy="226.475" r="11" fill="#ADD1B2" style="stroke:#181818;stroke-width:1"/><path d="M495.469 232.115q-.578.297-1.219.438-.64.156-1.344.156-2.5 0-3.828-1.64-1.312-1.657-1.312-4.782t1.312-4.781q1.328-1.656 3.828-1.656.703 0 1.344.156.656.156 1.219.453v2.719q-.625-.578-1.219-.844-.594-.281-1.219-.281-1.344 0-2.031 1.078-.688 1.062-.688 3.156 0 2.094.688 3.172.688 1.062 2.031 1.062.625 0 1.219-.265.594-.281 1.219-.86v2.72Z"/><text x="511.5" y="232.36" fill="#D9B8FF" font-family="Helvetica" font-size="17" textLength="138">digitalocean_vpc</text><path fill="none" d="M306.25 346.59c30.95 16.27 75.22 39.54 107.5 56.52" style="stroke:#1a83af;stroke-width:2"/><path fill="#1A83AF" d="m417.83 405.78-6.104-7.729 1.678 5.402-5.401 1.679 9.827.648z" style="stroke:#1a83af;stroke-width:2"/><path fill="none" d="M106.27 246.86c-5.7 25.84-11.17 71.51 12.23 99.3 28.9 34.32 138.74 55.44 225.26 67.09" style="stroke:#1a83af;stroke-width:2"/><path fill="#1A83AF" d="m348.69 414.04-8.396-5.148 3.44 4.49-4.492 3.44 9.448-2.782z" style="stroke:#1a83af;stroke-width:2"/><path fill="none" d="M142.72 246.8c26.07 16.14 63.28 39.16 90.64 56.1" style="stroke:#1a83af;stroke-width:2"/><path fill="#1A83AF" d="m237.35 305.99-5.544-8.14 1.294 5.507-5.507 1.293 9.757 1.34z" style="stroke:#1a83af;stroke-width:2"/><path fill="none" d="m426.49 146.74 26.41 253.35" style="stroke:#1a83af;stroke-width:2"/><path fill="#1A83AF" d="m453.49 404.78 3.053-9.364-3.567 4.39-4.39-3.567 4.904 8.541z" style="stroke:#1a83af;stroke-width:2"/><path fill="none" d="M409.36 146.99c-28.48 36.3-89.92 114.62-121.02 154.26" style="stroke:#1a83af;stroke-width:2"/><path fill="#1A83AF" d="m284.71 304.88 8.705-4.607-5.617.675-.674-5.616-2.414 9.548z" style="stroke:#1a83af;stroke-width:2"/><path fill="none" d="M452.75 147.01c23.51 16.07 56.99 38.97 81.73 55.89" style="stroke:#1a83af;stroke-width:2"/><path fill="#1A83AF" d="m538.31 206.2-5.164-8.387 1.04 5.561-5.561 1.04 9.685 1.786z" style="stroke:#1a83af;stroke-width:2"/><path fill="none" d="M481.1 47.21c63.07 25.18 160.6 76.11 194.4 159.37 36.78 90.6-89.39 162.62-165.79 196.82" style="stroke:#1a83af;stroke-width:2"/><path fill="#1A83AF" d="m505.3 405.79 9.849.006-5.279-2.034 2.034-5.279-6.604 7.307z" style="stroke:#1a83af;stroke-width:2"/><path fill="none" d="M377.5 47.25c-25.67 13.02-55.67 32.75-73 59.54-39.25 60.69-39.71 150.19-37.2 193.36" style="stroke:#1a83af;stroke-width:2"/><path fill="#1A83AF" d="m267.67 304.93 3.426-9.234-3.74 4.244-4.244-3.74 4.558 8.73z" style="stroke:#1a83af;stroke-width:2"/><path fill="none" d="M367.91 47.18c-36.93 13.85-85.35 34.48-124.41 59.61-42.87 27.59-85.46 69.08-110.22 94.99" style="stroke:#1a83af;stroke-width:2"/><path fill="#1A83AF" d="m130.16 205.11 9.096-3.776-5.655.149-.148-5.655-3.293 9.282z" style="stroke:#1a83af;stroke-width:2"/><path fill="none" d="M424.5 47.22v53.31" style="stroke:#1a83af;stroke-width:2"/><path fill="#1A83AF" d="m424.5 105.41 4-9-4 4-4-4 4 9z" style="stroke:#1a83af;stroke-width:2"/><path fill="none" d="M470.58 47.16c25.69 13.09 56.02 32.91 73.92 59.63 18.82 28.09 23.06 67.82 23.62 93.42" style="stroke:#1a83af;stroke-width:2"/><path fill="#1A83AF" d="m568.19 205.09 3.897-9.045-3.954 4.045-4.046-3.954 4.103 8.954z" style="stroke:#1a83af;stroke-width:2"/><path fill="none" d="M556.56 246.78c-20.49 36.15-64.62 113.98-87.17 153.77" style="stroke:#1a83af;stroke-width:2"/><path fill="#1A83AF" d="m466.49 404.67 7.92-5.855-5.453 1.506-1.506-5.453-.961 9.802z" style="stroke:#1a83af;stroke-width:2"/><path fill="none" d="M508.62 246.8C458.3 263.31 386 287.04 334.1 304.07" style="stroke:#1a83af;stroke-width:2"/><path fill="#1A83AF" d="m329.51 305.9 9.798 1.002-5.046-2.557 2.557-5.046-7.309 6.601z" style="stroke:#1a83af;stroke-width:2"/></svg>
